assets/1. F-P/Keycap 14/Color/Keycap.5-color.svg

<svg width="100%" height="100%" viewBox="0 0 32 32" fill="none" xmlns="http://www.w3.org/2000/svg">
<g filter="url(#filter0_ii_18590_3328)">
<rect x="1.65088" y="2.43298" width="27.875" height="27.875" rx="3.6" fill="url(#paint0_linear_18590_3328)"/>
<rect x="1.65088" y="2.43298" width="27.875" height="27.875" rx="3.6" fill="url(#paint1_radial_18590_3328)"/>
</g>
<g filter="url(#filter1_f_18590_3328)">
<path d="M27.8384 4.93298V27.808" stroke="url(#paint2_linear_18590_3328)" stroke-width="1.5" stroke-linecap="round"/>
</g>
<g filter="url(#filter2_f_18590_3328)">
<path d="M5.11475 4.24548H26.896" stroke="url(#paint3_linear_18590_3328)" stroke-width="1.5" stroke-linecap="round"/>
</g>
<g filter="url(#filter3_f_18590_3328)">
<path d="M11.0539 9.99878C11.0539 9.03228 11.8374 8.24878 12.8039 8.24878H18.2414C19.2079 8.24878 19.9914 9.03228 19.9914 9.99878C19.9914 10.9653 19.2079 11.7488 18.2414 11.7488H14.6539C14.5987 11.7488 14.5539 11.7936 14.5539 11.8488V13.1734C14.5539 13.2287 14.5987 13.2734 14.6539 13.2734H15.5227C18.6207 13.2734 21.1321 15.7848 21.1321 18.8828C21.1321 21.9808 18.6207 24.4922 15.5227 24.4922C13.8475 24.4922 12.3422 23.7557 11.317 22.5946C10.6772 21.8701 10.7459 20.7642 11.4704 20.1245C12.1949 19.4848 13.3008 19.5535 13.9405 20.2779C14.3296 20.7185 14.8931 20.9922 15.5227 20.9922C16.6877 20.9922 17.6321 20.0478 17.6321 18.8828C17.6321 17.7178 16.6877 16.7734 15.5227 16.7734H12.8039C11.8374 16.7734 11.0539 15.9899 11.0539 15.0234V9.99878Z" fill="#579FFF"/>
</g>
<g filter="url(#filter4_ii_18590_3328)">
<path d="M11.0539 9.99878C11.0539 9.03228 11.8374 8.24878 12.8039 8.24878H18.2414C19.2079 8.24878 19.9914 9.03228 19.9914 9.99878C19.9914 10.9653 19.2079 11.7488 18.2414 11.7488H14.6539C14.5987 11.7488 14.5539 11.7936 14.5539 11.8488V13.1734C14.5539 13.2287 14.5987 13.2734 14.6539 13.2734H15.5227C18.6207 13.2734 21.1321 15.7848 21.1321 18.8828C21.1321 21.9808 18.6207 24.4922 15.5227 24.4922C13.8475 24.4922 12.3422 23.7557 11.317 22.5946C10.6772 21.8701 10.7459 20.7642 11.4704 20.1245C12.1949 19.4848 13.3008 19.5535 13.9405 20.2779C14.3296 20.7185 14.8931 20.9922 15.5227 20.9922C16.6877 20.9922 17.6321 20.0478 17.6321 18.8828C17.6321 17.7178 16.6877 16.7734 15.5227 16.7734H12.8039C11.8374 16.7734 11.0539 15.9899 11.0539 15.0234V9.99878Z" fill="#FCF2FF"/>
</g>
<defs>
<filter id="filter0_ii_18590_3328" x="1.65088" y="1.43298" width="28.875" height="28.875" filterUnits="userSpaceOnUse" color-interpolation-filters="sRGB">
<feFlood flood-opacity="0" result="BackgroundImageFix"/>
<feBlend mode="normal" in="SourceGraphic" in2="BackgroundImageFix" result="shape"/>
<feColorMatrix in="SourceAlpha" type="matrix" values="0 0 0 0 0 0 0 0 0 0 0 0 0 0 0 0 0 0 127 0" result="hardAlpha"/>
<feOffset dx="1" dy="-1"/>
<feGaussianBlur stdDeviation="1.5"/>
<feComposite in2="hardAlpha" operator="arithmetic" k2="-1" k3="1"/>
<feColorMatrix type="matrix" values="0 0 0 0 0.188235 0 0 0 0 0.470588 0 0 0 0 0.843137 0 0 0 1 0"/>
<feBlend mode="normal" in2="shape" result="effect1_innerShadow_18590_3328"/>
<feColorMatrix in="SourceAlpha" type="matrix" values="0 0 0 0 0 0 0 0 0 0 0 0 0 0 0 0 0 0 127 0" result="hardAlpha"/>
<feOffset dy="-1"/>
<feGaussianBlur stdDeviation="1.5"/>
<feComposite in2="hardAlpha" operator="arithmetic" k2="-1" k3="1"/>
<feColorMatrix type="matrix" values="0 0 0 0 0.27451 0 0 0 0 0.34902 0 0 0 0 0.8 0 0 0 1 0"/>
<feBlend mode="normal" in2="effect1_innerShadow_18590_3328" result="effect2_innerShadow_18590_3328"/>
</filter>
<filter id="filter1_f_18590_3328" x="25.0884" y="2.18298" width="5.5" height="28.375" filterUnits="userSpaceOnUse" color-interpolation-filters="sRGB">
<feFlood flood-opacity="0" result="BackgroundImageFix"/>
<feBlend mode="normal" in="SourceGraphic" in2="BackgroundImageFix" result="shape"/>
<feGaussianBlur stdDeviation="1" result="effect1_foregroundBlur_18590_3328"/>
</filter>
<filter id="filter2_f_18590_3328" x="2.36475" y="1.49548" width="27.2812" height="5.5" filterUnits="userSpaceOnUse" color-interpolation-filters="sRGB">
<feFlood flood-opacity="0" result="BackgroundImageFix"/>
<feBlend mode="normal" in="SourceGraphic" in2="BackgroundImageFix" result="shape"/>
<feGaussianBlur stdDeviation="1" result="effect1_foregroundBlur_18590_3328"/>
</filter>
<filter id="filter3_f_18590_3328" x="9.87872" y="7.24878" width="12.2534" height="18.2434" filterUnits="userSpaceOnUse" color-interpolation-filters="sRGB">
<feFlood flood-opacity="0" result="BackgroundImageFix"/>
<feBlend mode="normal" in="SourceGraphic" in2="BackgroundImageFix" result="shape"/>
<feGaussianBlur stdDeviation="0.5" result="effect1_foregroundBlur_18590_3328"/>
</filter>
<filter id="filter4_ii_18590_3328" x="9.87872" y="7.84878" width="11.6534" height="17.6434" filterUnits="userSpaceOnUse" color-interpolation-filters="sRGB">
<feFlood flood-opacity="0" result="BackgroundImageFix"/>
<feBlend mode="normal" in="SourceGraphic" in2="BackgroundImageFix" result="shape"/>
<feColorMatrix in="SourceAlpha" type="matrix" values="0 0 0 0 0 0 0 0 0 0 0 0 0 0 0 0 0 0 127 0" result="hardAlpha"/>
<feOffset dx="-1" dy="1"/>
<feGaussianBlur stdDeviation="1"/>
<feComposite in2="hardAlpha" operator="arithmetic" k2="-1" k3="1"/>
<feColorMatrix type="matrix" values="0 0 0 0 0.866667 0 0 0 0 0.819608 0 0 0 0 0.941176 0 0 0 1 0"/>
<feBlend mode="normal" in2="shape" result="effect1_innerShadow_18590_3328"/>
<feColorMatrix in="SourceAlpha" type="matrix" values="0 0 0 0 0 0 0 0 0 0 0 0 0 0 0 0 0 0 127 0" result="hardAlpha"/>
<feOffset dx="0.4" dy="-0.4"/>
<feGaussianBlur stdDeviation="0.5"/>
<feComposite in2="hardAlpha" operator="arithmetic" k2="-1" k3="1"/>
<feColorMatrix type="matrix" values="0 0 0 0 1 0 0 0 0 0.988235 0 0 0 0 1 0 0 0 1 0"/>
<feBlend mode="normal" in2="effect1_innerShadow_18590_3328" result="effect2_innerShadow_18590_3328"/>
</filter>
<linearGradient id="paint0_linear_18590_3328" x1="15.5884" y1="6.00749" x2="15.5884" y2="39.2602" gradientUnits="userSpaceOnUse">
<stop stop-color="#5CB7FF"/>
<stop offset="1" stop-color="#4878DD"/>
</linearGradient>
<radialGradient id="paint1_radial_18590_3328" cx="0" cy="0" r="1" gradientUnits="userSpaceOnUse" gradientTransform="translate(27.3071 4.52673) rotate(136.771) scale(2.14444 2.50466)">
<stop stop-color="#7BD7FF"/>
<stop offset="1" stop-color="#7BD7FF" stop-opacity="0"/>
</radialGradient>
<linearGradient id="paint2_linear_18590_3328" x1="28.3384" y1="4.93298" x2="28.3384" y2="27.808" gradientUnits="userSpaceOnUse">
<stop stop-color="#7FD9FF"/>
<stop offset="1" stop-color="#639DF4"/>
</linearGradient>
<linearGradient id="paint3_linear_18590_3328" x1="28.0522" y1="4.49551" x2="2.521" y2="4.49551" gradientUnits="userSpaceOnUse">
<stop stop-color="#7DD8FF"/>
<stop offset="1" stop-color="#5DB6FF"/>
</linearGradient>
</defs>
</svg>

<svg width="100%" height="100%" viewBox="0 0 32 32" xmlns="http://www.w3.org/2000/svg"><g filter="url(#a)"><rect width="27.875" height="27.875" x="1.651" y="2.433" fill="url(#b)" rx="3.6"/><rect width="27.875" height="27.875" x="1.651" y="2.433" fill="url(#c)" rx="3.6"/></g><g filter="url(#d)"><path stroke="url(#e)" stroke-linecap="round" stroke-width="1.5" d="M27.838 4.933v22.875"/></g><g filter="url(#f)"><path stroke="url(#g)" stroke-linecap="round" stroke-width="1.5" d="M5.115 4.245h21.781"/></g><g filter="url(#h)"><path fill="#579FFF" d="M11.054 9.999c0-.967.783-1.75 1.75-1.75h5.437a1.75 1.75 0 1 1 0 3.5h-3.587a.1.1 0 0 0-.1.1v1.324a.1.1 0 0 0 .1.1h.869a5.61 5.61 0 1 1-4.206 9.322 1.75 1.75 0 1 1 2.624-2.317 2.11 2.11 0 1 0 1.582-3.504h-2.72a1.75 1.75 0 0 1-1.75-1.75z"/></g><g filter="url(#i)"><path fill="#FCF2FF" d="M11.054 9.999c0-.967.783-1.75 1.75-1.75h5.437a1.75 1.75 0 1 1 0 3.5h-3.587a.1.1 0 0 0-.1.1v1.324a.1.1 0 0 0 .1.1h.869a5.61 5.61 0 1 1-4.206 9.322 1.75 1.75 0 1 1 2.624-2.317 2.11 2.11 0 1 0 1.582-3.504h-2.72a1.75 1.75 0 0 1-1.75-1.75z"/></g><defs><filter id="a" width="28.875" height="28.875" x="1.651" y="1.433" color-interpolation-filters="sRGB" filterUnits="userSpaceOnUse"><feFlood flood-opacity="0" result="BackgroundImageFix"/><feBlend in="SourceGraphic" in2="BackgroundImageFix" result="shape"/><feColorMatrix in="SourceAlpha" result="hardAlpha" values="0 0 0 0 0 0 0 0 0 0 0 0 0 0 0 0 0 0 127 0"/><feOffset dx="1" dy="-1"/><feGaussianBlur stdDeviation="1.5"/><feComposite in2="hardAlpha" k2="-1" k3="1" operator="arithmetic"/><feColorMatrix values="0 0 0 0 0.188235 0 0 0 0 0.470588 0 0 0 0 0.843137 0 0 0 1 0"/><feBlend in2="shape" result="effect1_innerShadow_18590_3328"/><feColorMatrix in="SourceAlpha" result="hardAlpha" values="0 0 0 0 0 0 0 0 0 0 0 0 0 0 0 0 0 0 127 0"/><feOffset dy="-1"/><feGaussianBlur stdDeviation="1.5"/><feComposite in2="hardAlpha" k2="-1" k3="1" operator="arithmetic"/><feColorMatrix values="0 0 0 0 0.27451 0 0 0 0 0.34902 0 0 0 0 0.8 0 0 0 1 0"/><feBlend in2="effect1_innerShadow_18590_3328" result="effect2_innerShadow_18590_3328"/></filter><filter id="d" width="5.5" height="28.375" x="25.088" y="2.183" color-interpolation-filters="sRGB" filterUnits="userSpaceOnUse"><feFlood flood-opacity="0" result="BackgroundImageFix"/><feBlend in="SourceGraphic" in2="BackgroundImageFix" result="shape"/><feGaussianBlur result="effect1_foregroundBlur_18590_3328" stdDeviation="1"/></filter><filter id="f" width="27.281" height="5.5" x="2.365" y="1.495" color-interpolation-filters="sRGB" filterUnits="userSpaceOnUse"><feFlood flood-opacity="0" result="BackgroundImageFix"/><feBlend in="SourceGraphic" in2="BackgroundImageFix" result="shape"/><feGaussianBlur result="effect1_foregroundBlur_18590_3328" stdDeviation="1"/></filter><filter id="h" width="12.253" height="18.243" x="9.879" y="7.249" color-interpolation-filters="sRGB" filterUnits="userSpaceOnUse"><feFlood flood-opacity="0" result="BackgroundImageFix"/><feBlend in="SourceGraphic" in2="BackgroundImageFix" result="shape"/><feGaussianBlur result="effect1_foregroundBlur_18590_3328" stdDeviation=".5"/></filter><filter id="i" width="11.653" height="17.643" x="9.879" y="7.849" color-interpolation-filters="sRGB" filterUnits="userSpaceOnUse"><feFlood flood-opacity="0" result="BackgroundImageFix"/><feBlend in="SourceGraphic" in2="BackgroundImageFix" result="shape"/><feColorMatrix in="SourceAlpha" result="hardAlpha" values="0 0 0 0 0 0 0 0 0 0 0 0 0 0 0 0 0 0 127 0"/><feOffset dx="-1" dy="1"/><feGaussianBlur stdDeviation="1"/><feComposite in2="hardAlpha" k2="-1" k3="1" operator="arithmetic"/><feColorMatrix values="0 0 0 0 0.866667 0 0 0 0 0.819608 0 0 0 0 0.941176 0 0 0 1 0"/><feBlend in2="shape" result="effect1_innerShadow_18590_3328"/><feColorMatrix in="SourceAlpha" result="hardAlpha" values="0 0 0 0 0 0 0 0 0 0 0 0 0 0 0 0 0 0 127 0"/><feOffset dx=".4" dy="-.4"/><feGaussianBlur stdDeviation=".5"/><feComposite in2="hardAlpha" k2="-1" k3="1" operator="arithmetic"/><feColorMatrix values="0 0 0 0 1 0 0 0 0 0.988235 0 0 0 0 1 0 0 0 1 0"/><feBlend in2="effect1_innerShadow_18590_3328" result="effect2_innerShadow_18590_3328"/></filter><linearGradient id="b" x1="15.588" x2="15.588" y1="6.007" y2="39.26" gradientUnits="userSpaceOnUse"><stop stop-color="#5CB7FF"/><stop offset="1" stop-color="#4878DD"/></linearGradient><linearGradient id="e" x1="28.338" x2="28.338" y1="4.933" y2="27.808" gradientUnits="userSpaceOnUse"><stop stop-color="#7FD9FF"/><stop offset="1" stop-color="#639DF4"/></linearGradient><linearGradient id="g" x1="28.052" x2="2.521" y1="4.496" y2="4.496" gradientUnits="userSpaceOnUse"><stop stop-color="#7DD8FF"/><stop offset="1" stop-color="#5DB6FF"/></linearGradient><radialGradient id="c" cx="0" cy="0" r="1" gradientTransform="matrix(-1.56249 1.46876 -1.71548 -1.82495 27.307 4.527)" gradientUnits="userSpaceOnUse"><stop stop-color="#7BD7FF"/><stop offset="1" stop-color="#7BD7FF" stop-opacity="0"/></radialGradient></defs></svg>
